packages/kaspersky-hexa-ui-icons/src/iconsSVGs/16/ClearSolid.svg

<svg width="16" height="16" viewBox="0 0 16 16" fill="none" xmlns="http://www.w3.org/2000/svg">
<path fill-rule="evenodd" clip-rule="evenodd" d="M8 15C11.866 15 15 11.866 15 8C15 4.13401 11.866 1 8 1C4.13401 1 1 4.13401 1 8C1 11.866 4.13401 15 8 15ZM10.402 5.59791C10.6559 5.85175 10.6559 6.26331 10.402 6.51715L8.91921 7.99998L10.4021 9.48286C10.6559 9.7367 10.6559 10.1483 10.4021 10.4021C10.1483 10.6559 9.7367 10.6559 9.48286 10.4021L7.99998 8.91921L6.51709 10.4021C6.26325 10.6559 5.85169 10.6559 5.59785 10.4021C5.34401 10.1483 5.34401 9.7367 5.59785 9.48286L7.08074 7.99998L5.59791 6.51715C5.34407 6.26331 5.34407 5.85175 5.59791 5.59791C5.85175 5.34407 6.26331 5.34407 6.51715 5.59791L7.99998 7.08074L9.4828 5.59791C9.73664 5.34407 10.1482 5.34407 10.402 5.59791Z" fill="black"/>
</svg>

<svg xmlns="http://www.w3.org/2000/svg" width="16" height="16" fill="none" viewBox="0 0 16 16"><path fill="#000" fill-rule="evenodd" d="M8 15c3.866 0 7-3.134 7-7s-3.134-7-7-7-7 3.134-7 7 3.134 7 7 7m2.402-9.402a.65.65 0 0 1 0 .9192L8.9192 8l1.4829 1.4829a.65.65 0 0 1-.9192.9192l-1.483-1.4829-1.4828 1.4829a.65.65 0 0 1-.9192-.9192l1.4828-1.483L5.598 6.5172a.65.65 0 0 1 .9192-.9192L8 7.0807 9.4828 5.598a.65.65 0 0 1 .9192 0"/></svg>
